!!!SOCIAL_FUNCTION:	songs of war
!!!PDT:	1913
!!!OTL: No_49_The_Sioux_Woman_Defends_Her_Children.krn
!!!REG: Great_Lakes
!!!LANG: Non-Tone
!!!LING_GROUP: Algonquin
**kern	**kern
*staff2	*staff1
=1-	=1-
*clefF4	*clefF4
*k[f#c#]	*k[f#c#]
*M2/4	*M2/4
8GG/L	12f#\L
.	12f#\
8GG/J	.
.	12f#\J
8GG/L	8d\L
8GG/J	8A\J
=2	=2
8GG/L	4d\
8GG/J	.
8GG/L	[4d\
8GG/J	.
=3	=3
2r	8d\L]
.	16d\L
.	16d\JJ
.	8A;\L
.	16d\L
.	16d\JJ
=4	=4
2r	8e\L
.	8f#\J
.	8d\L
.	16A\L
.	16A\JJ
=5||	=5||
*M3/4	*M3/4
2.r	4A\
.	4.A\
.	16A\LL
.	16A\JJ
=6||	=6||
*M2/4	*M2/4
2r	8F#\L
.	8F#\J
.	4D\
=7||	=7||
*M3/4	*M3/4
2.r	12A\L
.	8A\
.	24F#\Jk
.	2A\
=8	=8
2.r	8A\L
.	8F#\J
.	8F#\L
.	8D\J
.	12F#\L
.	8F#\
.	24E\Jk
=9	=9
2.r	8D\L
.	8D\J
.	8D/L
.	8AA/J
.	4D\
=10	=10
2.r	2.D\
==	==
*-	*-
